T: Minor
M: 3/4
L: 1/8
K: Dmin
A2 A>B c>d | A2 A2 B>A | G2 A>G F>E | F2 D>D E>D | A2 A>B c>d | A2 A2 B>A | G2 A>G F>E | E3 :| B2 B>A B>c | d2 d2 c>B | A2 A>G A>B | A2 A>D d>c |B3 A B>c | d2 d2 c>B | A2 A>F E>F |1 E3 :|2 D3 ||
